X:26
%%scale .65
T:Maid Behind the Bar/Sally Gardens/ Sligo Maid
T: Maid Behind The Bar, The
R: reel
M: 4/4
L: 1/8
K: Dmaj
|:E|FAAB AFED|FAAB A2de|fBBA Bcde|fdgf efdB|
FAAB AFED|FAAB A2de|fBBA BcdB|AFEF D3:|
|:e|faag fdde|fdad fdd2|efga beef|gebe gee2|
faaf b2af|defd e2de|fBBA BcdB|AFEF D3:|
T: The Sally Gardens
R: reel
M: 4/4
L: 1/8
K: Gmaj
|:G2GA BAGB|dBeB dBAB|d2Bd efge|dBAB GEDE|
GFGA BAGB|d2eB dBAB|d2Bd efge|dBAB G4:|
|:dggf g2de|g2bg ageg|eaag a2eg|a2bg ageg|
dggf g2de|g2bg ageg|d2Bd efge|dBAB G4:|
T: Sligo Maid, The
R: reel
M: 4/4
L: 1/8
K: Ador
|: A2BA (3B^cd ef | gedB AGEF | G2BG dGBG | DEGA BAdB |
A2BA (3B^cd ef | gedB AGEG | B3G A2GE | DEGA BAA2:|
|: eaag a2ga | bgaf gfed | eggf g2ge | dega bgag |
eaag a2ga | bgaf gfed | eg (3gfg edBA | dBgB BAA2 :|

